X: 9
T:Boys of Curraghmore (#314), The
M:4/4
L:1/8
S:Rice-Walsh manuscript
R:Hornpipe
K:D
F>E|D2 D>F A2 FA|d>efe dBAD|G>ABG F2 D>E|F2 E2 E2 F>E|
D2 D>F A2 DF/2A/2|d>efe dBAD|G>ABG F2 DE|D2 D2 D2:|
|:c>d|e2 e>c A2 DF/2A/2|d2 d>c defd|d2 d>B AFDE|F2 E2 E2 F>E|
ADDF A2 DF/2A/2|d>efe dBAD|G>ABG F2 DE|D2 D2 D2:||

